X: 2
M:6/8
L:1/8
K:D
|:d/4e/4f/4g/4|a3 b3|a>ba afd|gag faf|ede fdB|
a3 f3|{f}ede fdB|AFA dAF|D>ED D2:||

